packages/ui-icons/svg/Line/hamburger.svg

<svg viewBox="0 0 1920 1920" version="1.1" xmlns="http://www.w3.org/2000/svg">
    <path d="M1920,1468.41176 L1920,1581.35294 L0,1581.35294 L0,1468.41176 L1920,1468.41176 Z M1920,903.705882 L1920,1016.64706 L0,1016.64706 L0,903.705882 L1920,903.705882 Z M1920,339 L1920,451.941176 L0,451.941176 L0,339 L1920,339 Z" stroke="none" stroke-width="1" fill-rule="evenodd"/>
</svg>

<svg viewBox="0 0 1920 1920" xmlns="http://www.w3.org/2000/svg">
    <path d="M1920 1468.412v112.94H0v-112.94h1920Zm0-564.706v112.941H0V903.706h1920ZM1920 339v112.941H0V339h1920Z" fill-rule="evenodd"/>
</svg>
